Static/amazon.svg

<svg width="187" height="218" viewBox="0 0 187 218" fill="none" xmlns="http://www.w3.org/2000/svg">
<rect x="0.5" y="18.5001" width="186" height="199" rx="11.5" fill="white"/>
<rect x="0.5" y="18.5001" width="186" height="199" rx="11.5" stroke="#F8F8F8"/>
<g filter="url(#filter0_d_652_7269)">
<g clip-path="url(#clip0_652_7269)">
<rect x="53.5" y="50.0001" width="80" height="80" rx="10" fill="white" fill-opacity="0.01" shape-rendering="crispEdges"/>
<rect width="80" height="80" transform="translate(53.5 50.0001)" fill="black"/>
<g clip-path="url(#clip1_652_7269)">
<path d="M114.21 107.212C91.5413 118 77.4728 108.974 68.4672 103.491C67.9099 103.146 66.9627 103.572 67.7845 104.516C70.7848 108.154 80.6172 116.922 93.4513 116.922C106.294 116.922 113.935 109.915 114.89 108.692C115.84 107.48 115.169 106.811 114.21 107.212H114.21ZM120.576 103.696C119.968 102.903 116.875 102.755 114.928 102.994C112.979 103.227 110.053 104.418 110.307 105.133C110.438 105.401 110.704 105.281 112.043 105.161C113.386 105.027 117.148 104.552 117.932 105.577C118.72 106.609 116.732 111.524 116.369 112.317C116.019 113.109 116.503 113.314 117.162 112.786C117.812 112.258 118.988 110.891 119.777 108.957C120.561 107.012 121.039 104.299 120.576 103.696Z" fill="#FF9900"/>
<path fill-rule="evenodd" clip-rule="evenodd" d="M98.9682 85.1981C98.9682 88.0288 99.0397 90.3895 97.609 92.9033C96.4542 94.9473 94.6249 96.2042 92.5811 96.2042C89.7911 96.2042 88.1663 94.0786 88.1663 90.9413C88.1663 84.7483 93.7152 83.6243 98.9682 83.6243V85.1981ZM106.295 102.908C105.815 103.337 105.12 103.368 104.579 103.082C102.167 101.079 101.738 100.149 100.409 98.2379C96.4236 102.305 93.603 103.521 88.4321 103.521C82.3209 103.521 77.5586 99.7503 77.5586 92.1983C77.5586 86.3018 80.7574 82.2855 85.3047 80.3236C89.2496 78.5861 94.7578 78.2795 98.9682 77.7994V76.8591C98.9682 75.132 99.1009 73.0881 98.0893 71.5962C97.2001 70.2574 95.5038 69.7056 94.0116 69.7056C91.2423 69.7056 88.7692 71.126 88.1663 74.0691C88.0435 74.7233 87.5633 75.3672 86.9093 75.3978L79.8579 74.6417C79.2653 74.5086 78.6113 74.0284 78.7748 73.1187C80.3996 64.5756 88.115 62.0001 95.0232 62.0001C98.5591 62.0001 103.178 62.9404 105.968 65.6179C109.504 68.9187 109.167 73.3232 109.167 78.116V89.4391C109.167 92.8421 110.577 94.3341 111.906 96.1737C112.376 96.8276 112.478 97.6148 111.885 98.105C110.403 99.3415 107.767 101.641 106.316 102.929L106.295 102.908" fill="black"/>
<path d="M114.21 107.212C91.5413 118 77.4728 108.974 68.4672 103.491C67.9099 103.146 66.9627 103.572 67.7845 104.516C70.7848 108.154 80.6172 116.922 93.4513 116.922C106.294 116.922 113.935 109.915 114.89 108.692C115.84 107.48 115.169 106.811 114.21 107.212H114.21ZM120.576 103.696C119.968 102.903 116.875 102.755 114.928 102.994C112.979 103.227 110.053 104.418 110.307 105.133C110.438 105.401 110.704 105.281 112.043 105.161C113.386 105.027 117.148 104.552 117.932 105.577C118.72 106.609 116.732 111.524 116.369 112.317C116.019 113.109 116.503 113.314 117.162 112.786C117.812 112.258 118.988 110.891 119.777 108.957C120.561 107.012 121.039 104.299 120.576 103.696Z" fill="#FF9900"/>
<path fill-rule="evenodd" clip-rule="evenodd" d="M98.9682 85.1981C98.9682 88.0288 99.0397 90.3895 97.609 92.9033C96.4542 94.9473 94.6249 96.2042 92.5811 96.2042C89.7911 96.2042 88.1663 94.0786 88.1663 90.9413C88.1663 84.7483 93.7152 83.6243 98.9682 83.6243V85.1981ZM106.295 102.908C105.815 103.337 105.12 103.368 104.579 103.082C102.167 101.079 101.738 100.149 100.409 98.2379C96.4236 102.305 93.603 103.521 88.4321 103.521C82.3209 103.521 77.5586 99.7503 77.5586 92.1983C77.5586 86.3018 80.7574 82.2855 85.3047 80.3236C89.2496 78.5861 94.7578 78.2795 98.9682 77.7994V76.8591C98.9682 75.132 99.1009 73.0881 98.0893 71.5962C97.2001 70.2574 95.5038 69.7056 94.0116 69.7056C91.2423 69.7056 88.7692 71.126 88.1663 74.0691C88.0435 74.7233 87.5633 75.3672 86.9093 75.3978L79.8579 74.6417C79.2653 74.5086 78.6113 74.0284 78.7748 73.1187C80.3996 64.5756 88.115 62.0001 95.0232 62.0001C98.5591 62.0001 103.178 62.9404 105.968 65.6179C109.504 68.9187 109.167 73.3232 109.167 78.116V89.4391C109.167 92.8421 110.577 94.3341 111.906 96.1737C112.376 96.8276 112.478 97.6148 111.885 98.105C110.403 99.3415 107.767 101.641 106.316 102.929L106.295 102.908Z" fill="white"/>
</g>
</g>
</g>
<path d="M47.7354 165.146L44.0879 176H41.5303L46.3115 163.203H47.9463L47.7354 165.146ZM50.7852 176L47.1201 165.146L46.9004 163.203H48.5439L53.3516 176H50.7852ZM50.6182 171.245V173.152H43.7539V171.245H50.6182ZM56.5771 168.442V176H54.2568V166.49H56.4453L56.5771 168.442ZM56.2344 170.902H55.5225C55.5225 170.24 55.6016 169.631 55.7598 169.074C55.9238 168.518 56.1641 168.034 56.4805 167.624C56.7969 167.208 57.1865 166.886 57.6494 166.657C58.1182 166.429 58.6602 166.315 59.2754 166.315C59.7031 166.315 60.0957 166.379 60.4531 166.508C60.8105 166.631 61.1182 166.827 61.376 167.097C61.6396 167.36 61.8418 167.706 61.9824 168.134C62.123 168.556 62.1934 169.063 62.1934 169.654V176H59.873V169.892C59.873 169.446 59.8086 169.098 59.6797 168.846C59.5566 168.594 59.3779 168.418 59.1436 168.318C58.9092 168.213 58.6279 168.16 58.2998 168.16C57.9365 168.16 57.623 168.234 57.3594 168.38C57.1016 168.521 56.8877 168.717 56.7178 168.969C56.5537 169.221 56.4307 169.511 56.3486 169.839C56.2725 170.167 56.2344 170.522 56.2344 170.902ZM62.0176 170.472L61.0596 170.648C61.0654 170.05 61.1475 169.49 61.3057 168.969C61.4639 168.442 61.6953 167.982 62 167.589C62.3105 167.191 62.6943 166.88 63.1514 166.657C63.6143 166.429 64.1475 166.315 64.751 166.315C65.2197 166.315 65.6416 166.382 66.0166 166.517C66.3975 166.646 66.7227 166.854 66.9922 167.141C67.2617 167.422 67.4668 167.788 67.6074 168.239C67.7539 168.691 67.8271 169.241 67.8271 169.892V176H65.4893V169.883C65.4893 169.42 65.4248 169.066 65.2959 168.819C65.1729 168.573 64.9941 168.403 64.7598 168.31C64.5254 168.21 64.25 168.16 63.9336 168.16C63.6113 168.16 63.3301 168.222 63.0898 168.345C62.8555 168.462 62.6562 168.626 62.4922 168.837C62.334 169.048 62.2139 169.294 62.1318 169.575C62.0557 169.851 62.0176 170.15 62.0176 170.472ZM75.1484 173.979V169.593C75.1484 169.271 75.0928 168.992 74.9814 168.758C74.8701 168.524 74.7002 168.342 74.4717 168.213C74.2432 168.084 73.9531 168.02 73.6016 168.02C73.291 168.02 73.0186 168.072 72.7842 168.178C72.5557 168.283 72.3799 168.433 72.2568 168.626C72.1338 168.814 72.0723 169.03 72.0723 169.276H69.7432C69.7432 168.884 69.8369 168.512 70.0244 168.16C70.2119 167.803 70.4785 167.486 70.8242 167.211C71.1758 166.93 71.5947 166.71 72.0811 166.552C72.5732 166.394 73.124 166.315 73.7334 166.315C74.4541 166.315 75.0957 166.438 75.6582 166.684C76.2266 166.924 76.6719 167.287 76.9941 167.774C77.3223 168.26 77.4863 168.872 77.4863 169.61V173.759C77.4863 174.234 77.5156 174.641 77.5742 174.981C77.6387 175.315 77.7324 175.605 77.8555 175.851V176H75.4912C75.3799 175.76 75.2949 175.455 75.2363 175.086C75.1777 174.711 75.1484 174.342 75.1484 173.979ZM75.4736 170.208L75.4912 171.588H74.0234C73.6602 171.588 73.3408 171.626 73.0654 171.702C72.79 171.773 72.5645 171.878 72.3887 172.019C72.2129 172.153 72.0811 172.318 71.9932 172.511C71.9053 172.698 71.8613 172.912 71.8613 173.152C71.8613 173.387 71.9141 173.598 72.0195 173.785C72.1309 173.973 72.2891 174.122 72.4941 174.234C72.7051 174.339 72.9512 174.392 73.2324 174.392C73.6426 174.392 74 174.31 74.3047 174.146C74.6094 173.976 74.8467 173.771 75.0166 173.53C75.1865 173.29 75.2773 173.062 75.2891 172.845L75.957 173.847C75.875 174.087 75.752 174.342 75.5879 174.611C75.4238 174.881 75.2129 175.133 74.9551 175.367C74.6973 175.602 74.3867 175.795 74.0234 175.947C73.6602 176.1 73.2383 176.176 72.7578 176.176C72.1426 176.176 71.5918 176.053 71.1055 175.807C70.6191 175.561 70.2354 175.224 69.9541 174.796C69.6729 174.368 69.5322 173.882 69.5322 173.337C69.5322 172.833 69.626 172.388 69.8135 172.001C70.001 171.614 70.2793 171.289 70.6484 171.026C71.0176 170.756 71.4746 170.554 72.0195 170.419C72.5703 170.278 73.2002 170.208 73.9092 170.208H75.4736ZM87.0312 174.172V176H79.877V174.172H87.0312ZM86.8643 167.879L80.7471 176H79.2178V174.568L85.2998 166.49H86.8643V167.879ZM86.0117 166.49V168.327H79.3408V166.49H86.0117ZM88.1299 171.342V171.157C88.1299 170.46 88.2295 169.818 88.4287 169.233C88.6279 168.641 88.918 168.128 89.2988 167.694C89.6797 167.261 90.1455 166.924 90.6963 166.684C91.2471 166.438 91.874 166.315 92.5771 166.315C93.292 166.315 93.9248 166.438 94.4756 166.684C95.0322 166.924 95.501 167.261 95.8818 167.694C96.2627 168.128 96.5527 168.641 96.752 169.233C96.9512 169.818 97.0508 170.46 97.0508 171.157V171.342C97.0508 172.033 96.9512 172.675 96.752 173.267C96.5527 173.853 96.2627 174.365 95.8818 174.805C95.501 175.238 95.0352 175.575 94.4844 175.816C93.9336 176.056 93.3037 176.176 92.5947 176.176C91.8916 176.176 91.2617 176.056 90.7051 175.816C90.1484 175.575 89.6797 175.238 89.2988 174.805C88.918 174.365 88.6279 173.853 88.4287 173.267C88.2295 172.675 88.1299 172.033 88.1299 171.342ZM90.4502 171.157V171.342C90.4502 171.758 90.4912 172.148 90.5732 172.511C90.6553 172.874 90.7812 173.193 90.9512 173.469C91.1211 173.744 91.3408 173.961 91.6104 174.119C91.8857 174.272 92.2139 174.348 92.5947 174.348C92.9697 174.348 93.292 174.272 93.5615 174.119C93.8311 173.961 94.0508 173.744 94.2207 173.469C94.3965 173.193 94.5254 172.874 94.6074 172.511C94.6895 172.148 94.7305 171.758 94.7305 171.342V171.157C94.7305 170.747 94.6895 170.363 94.6074 170.006C94.5254 169.643 94.3965 169.323 94.2207 169.048C94.0508 168.767 93.8281 168.547 93.5527 168.389C93.2832 168.225 92.958 168.143 92.5771 168.143C92.2021 168.143 91.8799 168.225 91.6104 168.389C91.3408 168.547 91.1211 168.767 90.9512 169.048C90.7812 169.323 90.6553 169.643 90.5732 170.006C90.4912 170.363 90.4502 170.747 90.4502 171.157ZM101.015 168.521V176H98.6943V166.49H100.874L101.015 168.521ZM100.646 170.902H99.96C99.9658 170.211 100.06 169.584 100.241 169.022C100.423 168.459 100.678 167.976 101.006 167.571C101.34 167.167 101.735 166.857 102.192 166.64C102.649 166.423 103.159 166.315 103.722 166.315C104.179 166.315 104.592 166.379 104.961 166.508C105.33 166.637 105.646 166.842 105.91 167.123C106.18 167.404 106.385 167.774 106.525 168.231C106.672 168.682 106.745 169.238 106.745 169.901V176H104.407V169.883C104.407 169.449 104.343 169.107 104.214 168.855C104.091 168.603 103.909 168.424 103.669 168.318C103.435 168.213 103.145 168.16 102.799 168.16C102.441 168.16 102.128 168.234 101.858 168.38C101.595 168.521 101.372 168.717 101.19 168.969C101.015 169.221 100.88 169.511 100.786 169.839C100.692 170.167 100.646 170.522 100.646 170.902ZM115.868 163.203V176H113.451V163.203H115.868ZM121.027 168.732V170.639H115.235V168.732H121.027ZM121.704 163.203V165.11H115.235V163.203H121.704ZM128.252 170.296H124.982L124.965 168.591H127.769C128.249 168.591 128.65 168.524 128.973 168.389C129.295 168.254 129.538 168.058 129.702 167.8C129.872 167.542 129.957 167.229 129.957 166.859C129.957 166.449 129.878 166.115 129.72 165.858C129.567 165.6 129.327 165.412 128.999 165.295C128.671 165.172 128.255 165.11 127.751 165.11H125.765V176H123.348V163.203H127.751C128.478 163.203 129.125 163.274 129.693 163.414C130.268 163.549 130.754 163.76 131.152 164.047C131.551 164.334 131.853 164.694 132.058 165.128C132.269 165.562 132.374 166.077 132.374 166.675C132.374 167.202 132.251 167.689 132.005 168.134C131.765 168.573 131.393 168.931 130.889 169.206C130.391 169.482 129.758 169.64 128.99 169.681L128.252 170.296ZM128.146 176H124.271L125.281 174.102H128.146C128.627 174.102 129.022 174.023 129.333 173.864C129.649 173.706 129.884 173.489 130.036 173.214C130.194 172.933 130.273 172.61 130.273 172.247C130.273 171.849 130.203 171.503 130.062 171.21C129.928 170.917 129.711 170.692 129.412 170.533C129.119 170.375 128.732 170.296 128.252 170.296H125.738L125.756 168.591H128.955L129.509 169.25C130.247 169.256 130.848 169.402 131.311 169.69C131.779 169.977 132.125 170.346 132.348 170.797C132.57 171.248 132.682 171.734 132.682 172.256C132.682 173.076 132.503 173.765 132.146 174.321C131.794 174.878 131.278 175.297 130.599 175.578C129.925 175.859 129.107 176 128.146 176ZM139.862 165.146L136.215 176H133.657L138.438 163.203H140.073L139.862 165.146ZM142.912 176L139.247 165.146L139.027 163.203H140.671L145.479 176H142.912ZM142.745 171.245V173.152H135.881V171.245H142.745Z" fill="#616161"/>
<defs>
<filter id="filter0_d_652_7269" x="3.5" y="0.00012207" width="180" height="180" filterUnits="userSpaceOnUse" color-interpolation-filters="sRGB">
<feFlood flood-opacity="0" result="BackgroundImageFix"/>
<feColorMatrix in="SourceAlpha" type="matrix" values="0 0 0 0 0 0 0 0 0 0 0 0 0 0 0 0 0 0 127 0" result="hardAlpha"/>
<feOffset/>
<feGaussianBlur stdDeviation="25"/>
<feComposite in2="hardAlpha" operator="out"/>
<feColorMatrix type="matrix" values="0 0 0 0 0.0901961 0 0 0 0 0.360784 0 0 0 0 1 0 0 0 0.1 0"/>
<feBlend mode="normal" in2="BackgroundImageFix" result="effect1_dropShadow_652_7269"/>
<feBlend mode="normal" in="SourceGraphic" in2="effect1_dropShadow_652_7269" result="shape"/>
</filter>
<clipPath id="clip0_652_7269">
<rect x="53.5" y="50.0001" width="80" height="80" rx="10" fill="white"/>
</clipPath>
<clipPath id="clip1_652_7269">
<rect width="56" height="56" fill="white" transform="translate(66 62.0001)"/>
</clipPath>
</defs>
</svg>

<svg xmlns="http://www.w3.org/2000/svg" width="187" height="218" fill="none"><rect width="186" height="199" x=".5" y="18.5" fill="#fff" rx="11.5"/><rect width="186" height="199" x=".5" y="18.5" stroke="#F8F8F8" rx="11.5"/><g filter="url(#a)"><g clip-path="url(#b)"><rect width="80" height="80" x="53.5" y="50" fill="#fff" fill-opacity=".01" rx="10" shape-rendering="crispEdges"/><path fill="#000" d="M53.5 50h80v80h-80z"/><g clip-path="url(#c)"><path fill="#F90" d="M114.21 107.212c-22.669 10.788-36.737 1.762-45.743-3.721-.557-.345-1.504.081-.683 1.025 3 3.638 12.833 12.406 25.667 12.406 12.843 0 20.484-7.007 21.439-8.23.95-1.212.279-1.881-.68-1.48Zm6.366-3.516c-.608-.793-3.701-.941-5.648-.702-1.949.233-4.875 1.424-4.621 2.139.131.268.397.148 1.736.028 1.343-.134 5.105-.609 5.889.416.788 1.032-1.2 5.947-1.563 6.74-.35.792.134.997.793.469.65-.528 1.826-1.895 2.615-3.829.784-1.945 1.262-4.658.799-5.261Z"/><path fill="#000" fill-rule="evenodd" d="M98.968 85.198c0 2.83.072 5.192-1.359 7.705-1.155 2.044-2.984 3.301-5.028 3.301-2.79 0-4.415-2.125-4.415-5.263 0-6.193 5.55-7.317 10.802-7.317v1.574Zm7.327 17.71c-.48.429-1.175.46-1.716.174-2.412-2.003-2.841-2.933-4.17-4.844-3.985 4.067-6.806 5.283-11.977 5.283-6.111 0-10.873-3.77-10.873-11.323 0-5.896 3.198-9.912 7.746-11.874 3.945-1.738 9.453-2.044 13.663-2.525v-.94c0-1.727.133-3.77-.879-5.263-.889-1.339-2.585-1.89-4.077-1.89-2.77 0-5.243 1.42-5.846 4.363-.123.654-.603 1.298-1.257 1.329l-7.051-.756c-.593-.133-1.247-.614-1.083-1.523C80.4 64.576 88.115 62 95.023 62c3.536 0 8.155.94 10.945 3.618 3.536 3.3 3.199 7.705 3.199 12.498v11.323c0 3.403 1.41 4.895 2.739 6.735.47.654.572 1.44-.021 1.931-1.482 1.236-4.118 3.536-5.569 4.824l-.021-.021" clip-rule="evenodd"/><path fill="#F90" d="M114.21 107.212c-22.669 10.788-36.737 1.762-45.743-3.721-.557-.345-1.504.081-.683 1.025 3 3.638 12.833 12.406 25.667 12.406 12.843 0 20.484-7.007 21.439-8.23.95-1.212.279-1.881-.68-1.48Zm6.366-3.516c-.608-.793-3.701-.941-5.648-.702-1.949.233-4.875 1.424-4.621 2.139.131.268.397.148 1.736.028 1.343-.134 5.105-.609 5.889.416.788 1.032-1.2 5.947-1.563 6.74-.35.792.134.997.793.469.65-.528 1.826-1.895 2.615-3.829.784-1.945 1.262-4.658.799-5.261Z"/><path fill="#fff" fill-rule="evenodd" d="M98.968 85.198c0 2.83.072 5.192-1.359 7.705-1.155 2.044-2.984 3.301-5.028 3.301-2.79 0-4.415-2.125-4.415-5.263 0-6.193 5.55-7.317 10.802-7.317v1.574Zm7.327 17.71c-.48.429-1.175.46-1.716.174-2.412-2.003-2.841-2.933-4.17-4.844-3.985 4.067-6.806 5.283-11.977 5.283-6.111 0-10.873-3.77-10.873-11.323 0-5.896 3.198-9.912 7.746-11.874 3.945-1.738 9.453-2.044 13.663-2.525v-.94c0-1.727.133-3.77-.879-5.263-.889-1.339-2.585-1.89-4.077-1.89-2.77 0-5.243 1.42-5.846 4.363-.123.654-.603 1.298-1.257 1.329l-7.051-.756c-.593-.133-1.247-.614-1.083-1.523C80.4 64.576 88.115 62 95.023 62c3.536 0 8.155.94 10.945 3.618 3.536 3.3 3.199 7.705 3.199 12.498v11.323c0 3.403 1.41 4.895 2.739 6.735.47.654.572 1.44-.021 1.931-1.482 1.236-4.118 3.536-5.569 4.824l-.021-.021Z" clip-rule="evenodd"/></g></g></g><path fill="#616161" d="M47.735 165.146 44.088 176H41.53l4.782-12.797h1.634l-.21 1.943ZM50.785 176l-3.665-10.854-.22-1.943h1.644L53.352 176h-2.567Zm-.167-4.755v1.907h-6.864v-1.907h6.864Zm5.96-2.803V176h-2.321v-9.51h2.188l.132 1.952Zm-.344 2.46h-.712c0-.662.08-1.271.238-1.828.164-.556.404-1.04.72-1.45a3.275 3.275 0 0 1 1.17-.967c.468-.228 1.01-.342 1.625-.342.428 0 .82.064 1.178.193.357.123.665.319.923.589.264.263.466.609.606 1.037.141.422.211.929.211 1.52V176h-2.32v-6.108c0-.446-.064-.794-.193-1.046a1.047 1.047 0 0 0-.536-.528 2.054 2.054 0 0 0-.844-.158c-.363 0-.677.074-.94.22a1.817 1.817 0 0 0-.642.589 2.848 2.848 0 0 0-.37.87 4.702 4.702 0 0 0-.114 1.063Zm5.784-.43-.958.176a5.954 5.954 0 0 1 .246-1.679c.158-.527.39-.987.694-1.38.31-.398.694-.709 1.151-.932.463-.228.996-.342 1.6-.342.469 0 .89.067 1.266.202.38.129.706.337.975.624.27.281.475.647.615 1.098.147.452.22 1.002.22 1.653V176H65.49v-6.117c0-.463-.064-.817-.193-1.064a1.006 1.006 0 0 0-.536-.509c-.235-.1-.51-.15-.826-.15-.323 0-.604.062-.844.185a1.725 1.725 0 0 0-.598.492 2.286 2.286 0 0 0-.36.738 3.365 3.365 0 0 0-.114.897Zm13.13 3.507v-4.386c0-.322-.055-.601-.167-.835a1.21 1.21 0 0 0-.51-.545c-.228-.129-.518-.193-.87-.193-.31 0-.582.052-.817.158a1.204 1.204 0 0 0-.527.448 1.159 1.159 0 0 0-.185.65h-2.329c0-.392.094-.764.281-1.116.188-.357.454-.674.8-.949.352-.281.77-.501 1.257-.659a5.39 5.39 0 0 1 1.652-.237c.721 0 1.363.123 1.925.369a2.92 2.92 0 0 1 1.336 1.09c.328.486.492 1.098.492 1.836v4.149c0 .475.03.882.088 1.222.065.334.158.624.282.87V176H75.49a3.503 3.503 0 0 1-.255-.914 7.163 7.163 0 0 1-.088-1.107Zm.326-3.771.017 1.38h-1.468c-.363 0-.682.038-.958.114-.275.071-.5.176-.676.317a1.279 1.279 0 0 0-.396.492 1.491 1.491 0 0 0-.132.641c0 .235.053.446.158.633.112.188.27.337.475.449.211.105.457.158.738.158.41 0 .768-.082 1.073-.246.304-.17.542-.375.712-.616.17-.24.26-.468.272-.685l.668 1.002c-.082.24-.205.495-.37.764-.163.27-.374.522-.632.756a3.202 3.202 0 0 1-.932.58c-.363.153-.785.229-1.265.229-.615 0-1.166-.123-1.652-.369a2.927 2.927 0 0 1-1.152-1.011 2.597 2.597 0 0 1-.422-1.459c0-.504.094-.949.282-1.336.187-.387.465-.712.834-.975.37-.27.827-.472 1.371-.607.551-.141 1.181-.211 1.89-.211h1.565Zm11.557 3.964V176h-7.154v-1.828h7.154Zm-.167-6.293L80.747 176h-1.53v-1.432l6.083-8.078h1.564v1.389Zm-.852-1.389v1.837H79.34v-1.837h6.67Zm2.118 4.852v-.185c0-.697.1-1.339.299-1.924.199-.592.489-1.105.87-1.539a3.92 3.92 0 0 1 1.397-1.01c.551-.246 1.178-.369 1.881-.369.715 0 1.348.123 1.899.369.556.24 1.025.577 1.406 1.01.38.434.67.947.87 1.539.2.585.299 1.227.299 1.924v.185c0 .691-.1 1.333-.299 1.925-.2.586-.49 1.098-.87 1.538-.381.433-.847.77-1.398 1.011-.55.24-1.18.36-1.89.36-.702 0-1.332-.12-1.889-.36a3.916 3.916 0 0 1-1.406-1.011c-.381-.44-.671-.952-.87-1.538a6.002 6.002 0 0 1-.3-1.925Zm2.32-.185v.185c0 .416.041.806.123 1.169.082.363.208.682.378.958.17.275.39.492.66.65.275.153.603.229.984.229.375 0 .697-.076.966-.229.27-.158.49-.375.66-.65.175-.276.304-.595.386-.958.082-.363.124-.753.124-1.169v-.185c0-.41-.041-.794-.124-1.151a2.986 2.986 0 0 0-.386-.958 1.846 1.846 0 0 0-.668-.659c-.27-.164-.595-.246-.976-.246-.375 0-.697.082-.967.246-.27.158-.489.378-.659.659-.17.275-.296.595-.378.958a5.136 5.136 0 0 0-.123 1.151Zm10.565-2.636V176h-2.32v-9.51h2.179l.141 2.031Zm-.369 2.381h-.686c.006-.691.1-1.318.281-1.88a4.455 4.455 0 0 1 .765-1.451 3.439 3.439 0 0 1 1.186-.931 3.522 3.522 0 0 1 1.53-.325c.457 0 .87.064 1.239.193.369.129.685.334.949.615.27.281.475.651.615 1.108.147.451.22 1.007.22 1.67V176h-2.338v-6.117c0-.434-.064-.776-.193-1.028a1.083 1.083 0 0 0-.545-.537c-.234-.105-.524-.158-.87-.158-.358 0-.671.074-.941.22a1.958 1.958 0 0 0-.668.589c-.175.252-.31.542-.404.87-.094.328-.14.683-.14 1.063Zm15.222-7.699V176h-2.417v-12.797h2.417Zm5.159 5.529v1.907h-5.792v-1.907h5.792Zm.677-5.529v1.907h-6.469v-1.907h6.469Zm6.548 7.093h-3.27l-.017-1.705h2.804c.48 0 .881-.067 1.204-.202.322-.135.565-.331.729-.589.17-.258.255-.571.255-.941 0-.41-.079-.744-.237-1.001-.153-.258-.393-.446-.721-.563-.328-.123-.744-.185-1.248-.185h-1.986V176h-2.417v-12.797h4.403a8.14 8.14 0 0 1 1.942.211c.575.135 1.061.346 1.459.633.399.287.701.647.906 1.081.211.434.316.949.316 1.547 0 .527-.123 1.014-.369 1.459-.24.439-.612.797-1.116 1.072-.498.276-1.131.434-1.899.475l-.738.615Zm-.106 5.704h-3.875l1.01-1.898h2.865c.481 0 .876-.079 1.187-.238.316-.158.551-.375.703-.65a1.94 1.94 0 0 0 .237-.967c0-.398-.07-.744-.211-1.037a1.426 1.426 0 0 0-.65-.677c-.293-.158-.68-.237-1.16-.237h-2.514l.018-1.705h3.199l.554.659c.738.006 1.339.152 1.802.44a2.69 2.69 0 0 1 1.037 1.107c.222.451.334.937.334 1.459 0 .82-.179 1.509-.536 2.065-.352.557-.868.976-1.547 1.257-.674.281-1.492.422-2.453.422Zm11.716-10.854L136.215 176h-2.558l4.781-12.797h1.635l-.211 1.943Zm3.05 10.854-3.665-10.854-.22-1.943h1.644L145.479 176h-2.567Zm-.167-4.755v1.907h-6.864v-1.907h6.864Z"/><defs><clipPath id="b"><rect width="80" height="80" x="53.5" y="50" fill="#fff" rx="10"/></clipPath><clipPath id="c"><path fill="#fff" d="M66 62h56v56H66z"/></clipPath><filter id="a" width="180" height="180" x="3.5" y="0" color-interpolation-filters="sRGB" filterUnits="userSpaceOnUse"><feFlood flood-opacity="0" result="BackgroundImageFix"/><feColorMatrix in="SourceAlpha" result="hardAlpha" values="0 0 0 0 0 0 0 0 0 0 0 0 0 0 0 0 0 0 127 0"/><feOffset/><feGaussianBlur stdDeviation="25"/><feComposite in2="hardAlpha" operator="out"/><feColorMatrix values="0 0 0 0 0.0901961 0 0 0 0 0.360784 0 0 0 0 1 0 0 0 0.1 0"/><feBlend in2="BackgroundImageFix" result="effect1_dropShadow_652_7269"/><feBlend in="SourceGraphic" in2="effect1_dropShadow_652_7269" result="shape"/></filter></defs></svg>
